src/pos-icons/nature.svg

<svg height="24" viewBox="0 0 24 24" width="24" xmlns="http://www.w3.org/2000/svg"><path d="m13 16.12c3.47-.41 6.17-3.36 6.17-6.95 0-3.87-3.13-7-7-7a7 7 0 0 0 -7 7c0 3.47 2.52 6.33 5.83 6.89v3.94h-6v2h14v-2h-6z"/></svg>

<?xml version="1.0" encoding="UTF-8"?><!DOCTYPE svg PUBLIC "-//W3C//DTD SVG 1.1//EN" "http://www.w3.org/Graphics/SVG/1.1/DTD/svg11.dtd"><svg xmlns="http://www.w3.org/2000/svg" xmlns:xlink="http://www.w3.org/1999/xlink" version="1.1" id="mdi-nature" width="24" height="24" viewBox="0 0 24 24"><path d="M13,16.12C16.47,15.71 19.17,12.76 19.17,9.17C19.17,5.3 16.04,2.17 12.17,2.17A7,7 0 0,0 5.17,9.17C5.17,12.64 7.69,15.5 11,16.06V20H5V22H19V20H13V16.12Z" /></svg>
